X: 82
T:The Guns of the Magnificient Seven
S:Session
M:C
L:1/8
K:C mixolydian
EAAG AB c2| EGFA GE D2| EAAG ABcd |  e2 dB BA A2 :|
|ABcd eg ~g2| gedB GABG| ABcd eg ~g2| gedB BA{B}A A2:|
| e2 dB A2  e | dBAB cd  | e2 dB A2 gf|  gedB  BA A2 :|
